X: 52
T: Motet cycle Ave mundi domina &mdash; 1. Ave mundi domina
C: Gaspar van Weerbeke
%%abc-version 2.0
%%abcx-abcm2ps-target-version 5.9.1 (29 Sep 2008)
%%abc-creator hum2abc beta
%%abcx-conversion-date 2022/03/06 13:05:55
%%abc-copyright Copyright 2021, Pavanello, Agnese
%%abc-edited-by Sapp, Craig Stuart
%%abc-edited-by Wissmann, Rolf
%%humdrum-veritas 135229222
%%humdrum-veritas-data 3447532008
%%linebreak <none>
%%barnumbers 0
L: 1/4
M: C|
N: Derived from Gas0301a-Ave_mundi_domina-Ave_mundi_domina.krn
%%staves [1 2 3 4]
V: 1 clef=treble
V: 2 clef=treble-8
V: 3 clef=treble-8
V: 4 clef=bass
K: F
[V:1] G8- [I:setbarnb 2]| 
[V:2] G8 | 
[V:3] G8- | 
[V:4] G,8 | 
[V:1] G4G4 | 
[V:2] B4c4 | 
[V:3] G4G4 | 
[V:4] _E,4C,4 | 
[V:1] G4G4 | 
[V:2] d4G4 | 
[V:3] B4c4 | 
[V:4] G,4_E,4 | 
[V:1] F6F2 | 
[V:2] A6A2 | 
[V:3] d6d2 | 
[V:4] D,6D,2 | 
[V:1] F4G4 | 
[V:2] A4G2g2 | 
[V:3] d4c4- | 
[V:4] F,4C,4 | 
[V:1] A4B4 | 
[V:2] c2f4e2 | 
[V:3] c4B4 | 
[V:4] F,4G,4 | 
[V:1] A4G2A2- | 
[V:2] f4e2f2- | 
[V:3] c4B2c2 | 
[V:4] F,4G,2F,2 | 
[V:1] A2G4^F2 | 
[V:2] f2d6 | 
[V:3] d2B2A4 | 
[V:4] D,2G,2D,4 | 
[V:1] G4z4 | 
[V:2] B4z2d2- | 
[V:3] G8 | 
[V:4] G,,4G,4- | 
[V:1] B4c4 | 
[V:2] d2g4f2 | 
[V:3] z8 | 
[V:4] G,4A,4 | 
[V:1] d4c4 | 
[V:2] g4a2f2 | 
[V:3] B4c4 | 
[V:4] G,2B,2A,4 | 
[V:1] B2G2F4 | 
[V:2] g4z2c2 | 
[V:3] d4c4 | 
[V:4] G,4A,4 | 
[V:1] G4z2c2- | 
[V:2] d2B2c4 | 
[V:3] B2G2A4 | 
[V:4] G,2G,2F,4 | 
[V:1] c2B2A4 | 
[V:2] z4F2A2 | 
[V:3] G4c4 | 
[V:4] G,4z2F,2 | 
[V:1] G2c4B2 | 
[V:2] B2c2d2e2 | 
[V:3] B2A4G2 | 
[V:4] G,2F,4G,2 | 
[V:1] A2G4F2 | 
[V:2] f2e2>d2c2- | 
[V:3] c2c2>B2A2 | 
[V:4] F,2C,4F,2 | 
[V:1] E2F4E2 | 
[V:2] c2B2c4 | 
[V:3] G2F2G4 | 
[V:4] C,2D,2C,4 | 
[V:1] F4z4 | 
[V:2] A2F4B2- | 
[V:3] F4z4 | 
[V:4] D,8 | 
[V:1] z8 | 
[V:2] B2A2B4 | 
[V:3] z4F4 | 
[V:4] C,4B,,4- | 
[V:1] z8 | 
[V:2] z8 | 
[V:3] G4B4 | 
[V:4] B,,4B,,4 | 
[V:1] z8 | 
[V:2] z8 | 
[V:3] A4G2c2- | 
[V:4] C,4_E,4 | 
[V:1] z8 | 
[V:2] z8 | 
[V:3] cBA4G2- | 
[V:4] D,2C,2D,2B,,2 | 
[V:1] c4B2d2 | 
[V:2] z4d4 | 
[V:3] G2^F2G4 | 
[V:4] A,,4G,,4 | 
[V:1] c2BAG2B2 | 
[V:2] e4d2f2 | 
[V:3] c4B2d2 | 
[V:4] z8 | 
[V:1] A2GFE2G2- | 
[V:2] e2dcB2d2- | 
[V:3] c2BAG2B2 | 
[V:4] z8 | 
[V:1] G2F4E2 | 
[V:2] d2c4=B2 | 
[V:3] F2A2G4 | 
[V:4] z8 | 
[V:1] F4z4 | 
[V:2] c4f4 | 
[V:3] F4z4 | 
[V:4] z8 | 
[V:1] z8 | 
[V:2] e4d2d2- | 
[V:3] z8 | 
[V:4] C,4F,4 | 
[V:1] z8 | 
[V:2] d2c2B2A2- | 
[V:3] z8 | 
[V:4] E,4D,4 | 
[V:1] z8 | 
[V:2] A2d4^c2 | 
[V:3] z8 | 
[V:4] F,2G,2E,4 | 
[V:1] z8 | 
[V:2] d4f4 | 
[V:3] z8 | 
[V:4] D,2F,2>E,2D,2 | 
[V:1] z8 | 
[V:2] e4d4 | 
[V:3] z8 | 
[V:4] C,4F,4 | 
[V:1] z8 | 
[V:2] c2d4c2- | 
[V:3] z8 | 
[V:4] E,2D,2G,2E,2 | 
[V:1] z8 | 
[V:2] c2=B2c4 | 
[V:3] F4G4 | 
[V:4] D,4C,4 | 
[V:1] F4G2E2 | 
[V:2] z8 | 
[V:3] A4G2G2 | 
[V:4] z4C,4 | 
[V:1] F2A2>G2G2- | 
[V:2] z4c4 | 
[V:3] F4G4 | 
[V:4] D,4E,4 | 
[V:1] G2^F2G4 | 
[V:2] d4c2e2- | 
[V:3] A4G4 | 
[V:4] D,2D,2E,2C,2 | 
[V:1] z2A2G4 | 
[V:2] e2d4c2 | 
[V:3] z2F2G4 | 
[V:4] D,4E,4 | 
[V:1] F4G2E2 | 
[V:2] d4e4 | 
[V:3] A4G2G2 | 
[V:4] D,4z2C,2 | 
[V:1] F2A4G2- | 
[V:2] d4z2c2 | 
[V:3] F4G4 | 
[V:4] D,4E,4 | 
[V:1] G2^F2G3A | 
[V:2] d4e4 | 
[V:3] A4G4 | 
[V:4] D,4G,,4 | 
[V:1] Bcd4B2- | 
[V:2] d2f4d2- | 
[V:3] z8 | 
[V:4] z8 | 
[V:1] B2A4G2 | 
[V:2] d2c2B4 | 
[V:3] z8 | 
[V:4] z8 | 
[V:1] A4z4 | 
[V:2] A4z4 | 
[V:3] d6c2 | 
[V:4] D,6_E,2 | 
[V:1] z8 | 
[V:2] z8 | 
[V:3] B4A2B2- | 
[V:4] D,4C,2B,,2 | 
[V:1] z8 | 
[V:2] z8 | 
[V:3] B2G4^F2 | 
[V:4] G,,2B,,2A,,4 | 
[V:1] z4E2E2 | 
[V:2] z4c2c2 | 
[V:3] G4z4 | 
[V:4] G,,4C,2C,2 | 
[V:1] D2G2^F2F2 | 
[V:2] B2G2A2A2 | 
[V:3] z8 | 
[V:4] G,2E,2D,2D,2 | 
[V:1] G4z4 | 
[V:2] G4z4 | 
[V:3] z4(3:2:2A2A2 | 
[V:4] G,,4(3:2:2C,2C,2 | 
[V:1] z8 | 
[V:2] z8 | 
[V:3] (3:2:4G2G2^F2^F2 | 
[V:4] (3:2:4B,,2G,,2A,,2A,,2 | 
[V:1] z8 | 
[V:2] z8 | 
[V:3] (3:2:4G2z2A2B2 | 
[V:4] G,,4z4 | 
[V:1] (3:2:4E2F2G2E2 | 
[V:2] z8 | 
[V:3] (3:2:4c2A2B2c2 | 
[V:4] z8 | 
[V:1] (3:2:4F2G2A2z2 | 
[V:2] z4(3:2:2d2e2 | 
[V:3] (3:2:2d2z2z4 | 
[V:4] z8 | 
[V:1] (3:2:4A2B2c2A2 | 
[V:2] (3:2:4f2d2e2f2 | 
[V:3] z8 | 
[V:4] z8 | 
[V:1] (3:2:6B2c2d2>c2 B A | 
[V:2] (3:2:4g2e2f2d2 | 
[V:3] z8 | 
[V:4] z8 | 
[V:1] (3:2:2A2G2A4 | 
[V:2] (3c2B2B2A4 | 
[V:3] z8 | 
[V:4] z8 | 
[V:1] E2E2D2G2 | 
[V:2] G2G2B2c2 | 
[V:3] c2c2B2G2 | 
[V:4] C,2C,2G,2E,2 | 
[V:1] ^F2F2G4 | 
[V:2] d2d2d4 | 
[V:3] A2A2G4 | 
[V:4] D,2D,2G,,4 | 
[V:1] z8 | 
[V:2] z8 | 
[V:3] z4(3:2:2A2B2 | 
[V:4] (3:2:4D,2E,2F,2D,2 | 
[V:1] z8 | 
[V:2] z8 | 
[V:3] (3:2:4c2A2B2c2 | 
[V:4] (3:2:4E,2F,2G,2E,2 | 
[V:1] z8 | 
[V:2] z8 | 
[V:3] (3:2:6d2>c2 B AA2G2 | 
[V:4] (3:2:4F,2D,2C,2B,,2 | 
[V:1] z4E2E2 | 
[V:2] z4G2G2 | 
[V:3] A4c2c2 | 
[V:4] A,,2D,2C,2C,2 | 
[V:1] D2G2^F2F2 | 
[V:2] B2c2d2d2 | 
[V:3] B2G2A2A2 | 
[V:4] G,2E,2D,2D,2 | 
[V:1] G4z4 | 
[V:2] B4(3:2:2d2e2 | 
[V:3] G4(3:2:2G2G2 | 
[V:4] G,,4z4 | 
[V:1] z8 | 
[V:2] (3:2:5f2>e2d2c2e2 | 
[V:3] (3:2:4F2G2A2G2 | 
[V:4] z8 | 
[V:1] z8 | 
[V:2] (3:2:4d2^c2d2z2 | 
[V:3] (3:2:4F2E2D2z2 | 
[V:4] z4(3:2:2A,2A,2 | 
[V:1] (3:2:4B2B2A2c2 | 
[V:2] (3:2:4g2g2f2f2 | 
[V:3] (3:2:4d2d2c2c2 | 
[V:4] (3:2:4G,2G,2A,2A,2 | 
[V:1] (3:2:4B2B2A2c2 | 
[V:2] (3:2:4g2g2f2f2 | 
[V:3] (3:2:4d2d2c2c2 | 
[V:4] (3:2:4G,2G,2A,2A,2 | 
[V:1] (3:2:4B2B2A2G2 | 
[V:2] (3:2:4g2f2f2d2 | 
[V:3] (3:2:4d2d2c2B2 | 
[V:4] (3:2:4G,2D,2F,2G,2 | 
[V:1] (3:2:2^F2z2z4 | 
[V:2] (3:2:4d2z2f2f2 | 
[V:3] A4z4 | 
[V:4] (3:2:4D,2z2A,2A,2 | 
[V:1] (3:2:4B2B2A2c2 | 
[V:2] (3:2:4g2g2f2f2 | 
[V:3] (3:2:4d2d2c2c2 | 
[V:4] (3:2:4G,2G,2A,2A,2 | 
[V:1] (3:2:4B2B2A2c2 | 
[V:2] (3:2:4g2g2f2f2 | 
[V:3] (3:2:4d2d2c2c2 | 
[V:4] (3:2:4G,2G,2A,2A,2 | 
[V:1] (3:2:4B2G2E2^F2 | 
[V:2] (3:2:4g2d2e2d2 | 
[V:3] (3:2:4d2B2c2A2 | 
[V:4] (3:2:4G,2G,2C,2D,2 | 
[V:1] G8 |]  
[V:2] d8 |]  
[V:3] G8 |]  
[V:4] G,,8 |]  


